X:175
T:Polska efter Pelle Fors
R:sl\"angpolska
H:efter Pelle Fors, upptecknad av R L R\"a\"af 1888. Jfr #45, #78, #38
A:\"Osterg\"otland
Z:id:hn-sp-175
M:3/4
L:1/16
K:D
A2d2 d2A2 FDFA | A2d2 edcd e4 | e2f2 g2f2 e2c2 | dcdf edcB AGFE |
A2d2 d2A2 FDFA | A2d2 edcd e4 | e2f2 gfga b2g2 | agfg e3d d4 :|
|: d2d'2 d'2d'2 d'2d'2 | d'2=c'2 c'2c'2 c'2c'2 | =c'2b2 b2b2 d'2b2 |
c'bab b3a a4 | g2g2 g2g2 b2g2 | agfg fdfg a2f2 | g2f2 ecef gfga |
bgfg e3d d4 :|
<end>
<start>
